X: 12
T:Ye wild Morris
M:4/4
L:1/4
S:Wright 1713
K:G
f/e/|gf/e/ d/e/d/_B/|AF2e/f/|gf/e/ d/A/B/c/|BG2||
e/f/|gggf/g/|aaae/f/|g/f/g/a/gd|BG2||
A/B/|cB/A/ G/A/B/c/|AF2B/c/|dc/B/ A/B/c/d/|BG2||
